X:1
T:Title
%%score { ( 1 3 4 ) | ( 2 5 ) }
L:1/8
M:4/4
K:Eb
V:1 treble nm="Grand Piano"
V:3 treble 
V:4 treble 
V:2 bass 
V:5 bass 
V:1
 z4 z2[Q:1/4=100] [EG]2 | [GB][Gc][GB][Gc] [GB]2 E2 | E2 D4 [DB][DB] | [Ad]2 [Ac]2 [DF]2 [D_G]2 | %4
[M:3/4] [EG]6 |[M:1/4] [EG]2 |[M:4/4] [GB][Gc][GB][Gc] [Gd]2 [Ge]2 | %7
 [EBd]2 [EAc]2 [CEA]2 [=B,EF]2 | [B,EG]2 [G,B,]2 [B,DG]2 [A,DF]2 |[M:3/4] [G,E]6 |[M:1/4] [B,EG]2 | %11
[M:4/4] [GB]6 z2 | z2 [EG]4 z2 | [DA-]4 A2 z2 | [EG]6 z2 | [GB]6 z2 | z2 [EG]4 z2 | F4 G2 =A2 | %18
 [DB]2 [DB]2 [Ec]2 [Ad]2 | [Ge]6 z2 | z2 [GB]4 z2 | A4 E2 F2 | G6 G2 | F2 F2 d2 c2 | B2 c2 E2 A2 | %25
 z4 [DF]4 |[M:3/4] E6 |] %27
V:2
 z4 z2 [E,B,]2 | [E,E][E,E][E,E][E,E] [E,E]2 [G,B,]2 | [F,A,B,]2 [F,A,B,]4 [B,,F,][B,,F,] | %3
 [B,,B,]2 [B,,B,]2 [B,,B,]2 [B,,B,]2 |[M:3/4] [E,B,]6 |[M:1/4] [E,B,]2 | %6
[M:4/4] [E,E][E,E][E,E][E,E] [E,E]2 [E,E]2 | A,2 A,2 A,,2 A,,2 | B,,2 B,,2 B,,2 B,,2 |[M:3/4] E,6 | %10
[M:1/4] E,2 |[M:4/4] E,2 E,2 z[K:treble] A z F | E,2 E,2 E,2 E,2 | F,2 B,,2 [C,B,]2 [D,B,]2 | %14
 [E,B,]2 B,,2 E,2 E,2 | E,2 E,2 z[K:treble] A z F | E,2 E,2 E,2 [E,B,E]2 | %17
 [F,B,D]4 [F,E]2 [F,CE]2 | [B,,B,]2 [A,B,]2 [G,B,]2 [F,B,]2 | [E,B,]2 E,2 z G [E,B,]2 | %20
 [E,E]2 [E,E]2 E,2 [E,B,E]2 | [A,CE]4 [A,C]2 [A,C]2 | [G,=B,D]6 [G,B,D]2 | %23
 C2 z2 [=A,D_G]2 [A,EG]2 | [B,EG]2 [A,EA]2 [G,B,]2[K:bass] [F,CE]2 | z4 B,2 z2 |[M:3/4] [E,G,]6 |] %27
V:3
 x8 | x8 | x8 | x8 |[M:3/4] x6 |[M:1/4] x2 |[M:4/4] x8 | x8 | x8 |[M:3/4] x6 |[M:1/4] x2 | %11
[M:4/4] E2 E2 z c[GB]A | [B,EG]2 B,2 B,2 [B,EG]2 | B,2 B,2 E2 [FA]2 | z2 B,2 B,2 [B,EG]2 | %15
 E2 E2 z c[GB]A | [B,EG]2 B,2 B,2 G2 | x8 | x8 | z2 B,2 z d[Gc][EG] | [GB]2 z2 E2 G2 | x8 | x8 | %23
 x8 | x8 | G4 z2 A,2 |[M:3/4] x6 |] %27
V:4
 x8 | x8 | x8 | x8 |[M:3/4] x6 |[M:1/4] x2 |[M:4/4] x8 | x8 | x8 |[M:3/4] x6 |[M:1/4] x2 | %11
[M:4/4] z4 E2 z2 | x8 | x8 | x8 | z4 E2 z2 | x8 | x8 | x8 | z4 B,2 z2 | x8 | x8 | x8 | x8 | x8 | %25
 x8 |[M:3/4] x6 |] %27
V:5
 x8 | x8 | x8 | x8 |[M:3/4] x6 |[M:1/4] x2 |[M:4/4] x8 | x8 | x8 |[M:3/4] x6 |[M:1/4] x2 | %11
[M:4/4] z4 E,2[K:treble] [E,E]2 | x8 | x8 | x8 | z4 E,2[K:treble] [E,E]2 | x8 | x8 | x8 | %19
 z4 E,2 z2 | x8 | x8 | x8 | A,4 z4 | x6[K:bass] x2 | [B,E]4 B,,4 |[M:3/4] x6 |] %27

